svg/fluentui-system-icons/ic_fluent_chevron_circle_left_28_regular.svg

<svg width="28" height="28" viewBox="0 0 28 28" fill="none" xmlns="http://www.w3.org/2000/svg">
<path d="M14 3.5C19.799 3.5 24.5 8.20101 24.5 14C24.5 19.799 19.799 24.5 14 24.5C8.20101 24.5 3.5 19.799 3.5 14C3.5 8.20101 8.20101 3.5 14 3.5ZM26 14C26 7.37258 20.6274 2 14 2C7.37258 2 2 7.37258 2 14C2 20.6274 7.37258 26 14 26C20.6274 26 26 20.6274 26 14ZM16.7803 9.03033C17.0732 8.73744 17.0732 8.26256 16.7803 7.96967C16.4874 7.67678 16.0126 7.67678 15.7197 7.96967L10.2197 13.4697C9.92678 13.7626 9.92678 14.2374 10.2197 14.5303L15.7197 20.0303C16.0126 20.3232 16.4874 20.3232 16.7803 20.0303C17.0732 19.7374 17.0732 19.2626 16.7803 18.9697L11.8107 14L16.7803 9.03033Z" fill="#212121"/>
</svg>

<svg xmlns="http://www.w3.org/2000/svg" width="28" height="28"><path d="M14 3.5c5.799 0 10.5 4.701 10.5 10.5S19.799 24.5 14 24.5 3.5 19.799 3.5 14 8.201 3.5 14 3.5ZM26 14c0-6.627-5.373-12-12-12S2 7.373 2 14s5.373 12 12 12 12-5.373 12-12Zm-9.22-4.97a.75.75 0 0 0-1.06-1.06l-5.5 5.5a.75.75 0 0 0 0 1.06l5.5 5.5a.75.75 0 1 0 1.06-1.06L11.81 14l4.97-4.97Z"/></svg>
